X:107
T:Jack of Both Sides. JJo.107
B:J.Johnson Choice Collection Vol 8 1758
Z:vmp.Simon Wilson 2013 www.village-music-project.org.uk
Z:Dance added by John Chambers 2017
N:The book actually has low A, for the final note. It's clearly a typo.
M:6/8
L:1/8
%Q:3/8=100
K:G
|:\
GAB cAF | GBd FAd | Egf edc | Bed cBA |\
GAB cAF | GBd FAd | Egf ed^c | d3 D3 :|
|:\
def ge^c | dfa gfe | dD=f C2e | B,dB cAF |\
GDB AGF | GDB ceg | fdB cAF | G3 G,3 :|
%%begintext align
%% First Cu. lead thro' the 2d and 3d Cu. the 2d Cu.
%% follow them at the same time and all cast up
%% into their own Places .| foot it and hands
%% 4 round at top :| Cross over two Cu. :||.
%% Lead up to the top foot it and cast off :||:
%%endtext
